packages/core/src/svgs/pasg.svg

<svg width="24" height="24" viewBox="0 0 24 24" fill="none" xmlns="http://www.w3.org/2000/svg">
<g clip-path="url(#clip0_31_15719)">
<path d="M0 0H24V24H0V0Z" fill="#F0F3FA"/>
<path fill-rule="evenodd" clip-rule="evenodd" d="M18.8314 12.0001C18.8314 13.8119 18.1116 15.5495 16.8305 16.8306C15.5494 18.1118 13.8118 18.8315 11.9999 18.8315C10.1881 18.8315 8.45054 18.1118 7.1694 16.8306C5.88826 15.5495 5.16852 13.8119 5.16852 12.0001C5.16852 10.1883 5.88826 8.45066 7.1694 7.16952C8.45054 5.88838 10.1881 5.16864 11.9999 5.16864C13.8118 5.16864 15.5494 5.88838 16.8305 7.16952C18.1116 8.45066 18.8314 10.1883 18.8314 12.0001ZM19.2857 12.0001C19.2857 13.9324 18.5181 15.7855 17.1517 17.1518C15.7854 18.5182 13.9322 19.2858 11.9999 19.2858C10.0677 19.2858 8.21451 18.5182 6.84817 17.1518C5.48183 15.7855 4.71423 13.9324 4.71423 12.0001C4.71423 10.0678 5.48183 8.21463 6.84817 6.84829C8.21451 5.48196 10.0677 4.71436 11.9999 4.71436C13.9322 4.71436 15.7854 5.48196 17.1517 6.84829C18.5181 8.21463 19.2857 10.0678 19.2857 12.0001ZM17.3828 12.0001C17.3828 13.4277 16.8157 14.7968 15.8062 15.8063C14.7967 16.8158 13.4276 17.3829 11.9999 17.3829C10.5723 17.3829 9.20317 16.8158 8.19369 15.8063C7.18421 14.7968 6.61709 13.4277 6.61709 12.0001C6.61709 10.5724 7.18421 9.2033 8.19369 8.19381C9.20317 7.18433 10.5723 6.61721 11.9999 6.61721C13.4276 6.61721 14.7967 7.18433 15.8062 8.19381C16.8157 9.2033 17.3828 10.5724 17.3828 12.0001ZM18.4285 12.0001C18.4285 13.705 17.7512 15.3402 16.5456 16.5458C15.34 17.7513 13.7049 18.4286 11.9999 18.4286C10.295 18.4286 8.65985 17.7513 7.45426 16.5458C6.24867 15.3402 5.57138 13.705 5.57138 12.0001C5.57138 10.2951 6.24867 8.65997 7.45426 7.45438C8.65985 6.24879 10.295 5.5715 11.9999 5.5715C13.7049 5.5715 15.34 6.24879 16.5456 7.45438C17.7512 8.65997 18.4285 10.2951 18.4285 12.0001ZM9.6428 9.85721C9.35864 9.85721 9.08612 9.97009 8.88519 10.171C8.68426 10.372 8.57138 10.6445 8.57138 10.9286V13.0715C8.57138 13.3557 8.68426 13.6282 8.88519 13.8291C9.08612 14.03 9.35864 14.1429 9.6428 14.1429C9.92697 14.1429 10.1995 14.03 10.4004 13.8291C10.6014 13.6282 10.7142 13.3557 10.7142 13.0715V12.1586H9.94281L10.7142 11.2886V10.9286C10.7142 10.6445 10.6014 10.372 10.4004 10.171C10.1995 9.97009 9.92697 9.85721 9.6428 9.85721ZM13.2857 10.9286C13.2857 10.6445 13.3985 10.372 13.5995 10.171C13.8004 9.97009 14.0729 9.85721 14.3571 9.85721C14.6413 9.85721 14.9138 9.97009 15.1147 10.171C15.3156 10.372 15.4285 10.6445 15.4285 10.9286V11.2886L14.6571 12.1629H15.4285V13.0715C15.4285 13.3557 15.3156 13.6282 15.1147 13.8291C14.9138 14.03 14.6413 14.1429 14.3571 14.1429C14.0729 14.1429 13.8004 14.03 13.5995 13.8291C13.3985 13.6282 13.2857 13.3557 13.2857 13.0715V10.9286Z" fill="black"/>
</g>
<defs>
<clipPath id="clip0_31_15719">
<rect width="24" height="24" fill="white"/>
</clipPath>
</defs>
</svg>

<svg xmlns="http://www.w3.org/2000/svg" width="24" height="24" fill="none" viewBox="0 0 24 24"><g clip-path="url(#a)"><path fill="#F0F3FA" d="M0 0h24v24H0z"/><path fill="#000" fill-rule="evenodd" d="M18.831 12A6.831 6.831 0 1 1 5.17 12a6.831 6.831 0 0 1 13.662 0m.455 0a7.285 7.285 0 1 1-14.57 0 7.285 7.285 0 0 1 14.57 0m-1.903 0a5.383 5.383 0 1 1-10.766 0 5.383 5.383 0 0 1 10.766 0m1.046 0A6.429 6.429 0 1 1 5.57 12a6.429 6.429 0 0 1 12.858 0M9.643 9.857A1.07 1.07 0 0 0 8.57 10.93v2.143a1.071 1.071 0 1 0 2.143 0v-.913h-.771l.771-.87v-.36a1.07 1.07 0 0 0-1.071-1.072m3.643 1.072a1.071 1.071 0 1 1 2.143 0v.36l-.772.874h.771v.909a1.071 1.071 0 1 1-2.142 0z" clip-rule="evenodd"/></g><defs><clipPath id="a"><path fill="#fff" d="M0 0h24v24H0z"/></clipPath></defs></svg>
